X: 4
T:Tempo de danza
M:3/4
L:1/8
Q:270
C:E. Otero
R:Jota
B:Leccións de Gaita. OTERO COVELO
K:C
C2E2G2 |c2A2F2 | D2 EFED | G4 C2| C2E2G2 |
c2A2F2 |D2 EFED |1 C6 :|2 C4 G2 |: c4 A2 | F4 D2 |
E2F2A2 | GA GFED | G2C2G2 | c4 A2 | F4D2 | E2 FGAG |1 
C4 G2 :|2 C6 |: D2E2F2 | G2A2B2 | c2A2F2 | D2 A2 G2 |
G4 C2| D2E2F2 | G2A2B2 | c2 A2 F2 | D2 A2 G2 | C6 :|

